!!!!SEGMENT: Snf0101-A_Subitanea_et_improvisa_morte--Zwickau_1676_1788.krn
!!!id: Snf0101
!!!AGN: Motet
!!!SCT: Edwards, Gasch, Tröster (2021)
!!!voices: 3
!!!COM: Ludwig Senfl
!!!OTL: A subitanea et improvisa morte (Zwickau 1676-1788)
**kern	**text	**kern	**text	**kern	**text
*part3	*part3	*part2	*part2	*part1	*part1
*staff3	*staff3	*staff2	*staff2	*staff1	*staff1
!!section: Prima pars: A subitanea et improvisa morte
!!!OMD: Prima pars: A subitanea et improvisa morte
*I"Bassus	*	*I"Tenor	*	*I"Superius	*
*I'B	*	*I'T	*	*I'S	*
*clefF4	*	*clefGv2	*	*clefG2	*
*	*	*	*	*	*
*k[]	*	*k[]	*	*k[]	*
*	*	*	*	*	*
*M2/1	*	*M2/1	*	*M2/1	*
*met(C|)	*	*met(C|)	*	*met(C|)	*
=1	=1	=1	=1	=1	=1
!	!	!	!	!LO:TX:a:t=Altus not extant \n	!
0r	.	0r	.	0r	.
=2	=2	=2	=2	=2	=2
0r	.	0r	.	0cc	A
=3	=3	=3	=3	=3	=3
0r	.	0r	.	1.cc	su-
.	.	.	.	2cc	-bi-
=4	=4	=4	=4	=4	=4
0r	.	0r	.	2cc	-ta-
.	.	.	.	2cc	-ne-
.	.	.	.	2cc	-a
.	.	.	.	2cc	et
=5	=5	=5	=5	=5	=5
0r	.	0r	.	2cc	im-
.	.	.	.	2cc	-pro-
.	.	.	.	1cc	-vi-
=6	=6	=6	=6	=6	=6
0r	.	0r	.	1b	-sa
.	.	.	.	1dd	mor-
=7	=7	=7	=7	=7	=7
0r	.	0c	A	0ee	-te
=8	=8	=8	=8	=8	=8
0F	A	1.c	su-	1r	.
.	.	.	.	2.cc	li-
.	.	2c	-bi-	.	.
.	.	.	.	4b	-be-
=9	=9	=9	=9	=9	=9
1.F	su-	2c	-ta-	2.a	-ra
.	.	2c	-ne-	.	.
.	.	.	.	4g	.
.	.	2c	-a	2.a	nos,
2F	-bi-	2c	et	.	.
.	.	.	.	4b	.
=10	=10	=10	=10	=10	=10
2F	-ta-	2c	im-	2cc	.
2F	-ne-	2c	-pro-	2.cc	Do-
1F	-a,	1c	-vi-	.	.
.	.	.	.	4b	.
.	.	.	.	[2a	.
=11	=11	=11	=11	=11	=11
0r	.	1B	-sa	2a]	.
.	.	.	.	2g	.
.	.	1d	mor-	2.a	.
.	.	.	.	4b	-mi-
=12	=12	=12	=12	=12	=12
0C	a	[0e	-te	[0cc	-ne,
=13	=13	=13	=13	=13	=13
1.C	su-	0e]	.	0cc_	.
2C	-bi-	.	.	.	.
=14	=14	=14	=14	=14	=14
2C	-ta-	2.c	li-	0cc]	.
2C	-ne-	.	.	.	.
.	.	4B	-be-	.	.
1C	-a	2A	-ra	.	.
.	.	2G	nos,	.	.
=15	=15	=15	=15	=15	=15
2r	.	2.A	Do-	1r	.
2C	et	.	.	.	.
.	.	4B	-mi-	.	.
2C	im-	[1c	-ne,	2.g	li-
2C	-pro-	.	.	.	.
.	.	.	.	4f	-be-
=16	=16	=16	=16	=16	=16
1C	-vi-	1c]	.	1e	-ra
*	*	*	*	*	*
1BB	-sa	1r	.	2.d	nos,
.	.	.	.	4e	.
=17	=17	=17	=17	=17	=17
0D	mor-	0A	li-	2f	.
.	.	.	.	1g	Do-
.	.	.	.	2f#i	-mi-
=18	=18	=18	=18	=18	=18
0E	-te	1.G	-be-	1g	-ne,
.	.	.	.	2r	.
.	.	2G	-ra	2g	[li-
=19	=19	=19	=19	=19	=19
0r	.	1F	nos,	2a	-be-
.	.	.	.	2.cc	-ra
.	.	2.A	Do-	.	.
.	.	.	.	4b	.
.	.	.	.	[2a	.
.	.	4B	-mi-	.	.
=20	=20	=20	=20	=20	=20
2.C	li-	1c	-ne,	2a]	.
.	.	.	.	2g	nos,
4BB	-be-	.	.	.	.
2AA	-ra	1r	.	2a	Do-
2GG	nos,	.	.	2b	-mi-
=21	=21	=21	=21	=21	=21
2AA	Do-	2.c	li-	[0e	-ne,]
2BB	-mi-	.	.	.	.
.	.	4B	-be-	.	.
1C	-ne,	2A	-ra	.	.
.	.	2G	nos,	.	.
=22	=22	=22	=22	=22	=22
1r	.	2.A	Do-	1e]	.
.	.	4B	-mi-	.	.
2.F	li-	1c	-ne,	2r	.
.	.	.	.	2c	li-
4E	-be-	.	.	.	.
=23	=23	=23	=23	=23	=23
1D	-ra	1F	Do-	2d	-be-
.	.	.	.	1f	-ra
1C	nos,	1G	-mi-	.	.
.	.	.	.	2e	.
=24	=24	=24	=24	=24	=24
2.D	Do-	1F	-ne,	2.f	nos,
4E	-mi-	.	.	4g	.
1F	-ne,	1r	.	2a	Do-
.	.	.	.	2a	-mi-
=25	=25	=25	=25	=25	=25
1r	.	2.c	[li-	1g	-ne,
.	.	4B	-be-	.	.
2.C	[li-	2A	-ra	1r	.
.	.	2G	nos	.	.
4BB	-be-	.	.	.	.
=26	=26	=26	=26	=26	=26
2AA	-ra	2A	Do-	2cc	li-
2GG	nos,	2B	.	2b	-be-
2.AA	Do-	[1c	.	2a	-ra
.	.	.	.	[2g	nos,
4BB	.	.	.	.	.
=27	=27	=27	=27	=27	=27
2C	.	1c]	.	2g]	.
2AA	.	.	.	2.a	Do-
*	*	*	*	*	*
2A	.	1c	-mi-	.	.
.	.	.	.	4b	.
2A	-mi-	.	.	[2cc	.
=28	=28	=28	=28	=28	=28
0G	-ne,	0d	-ne,]	2cc]	.
.	.	.	.	4b	.
.	.	.	.	4a	.
.	.	.	.	1b	-mi-
=29	=29	=29	=29	=29	=29
2.C	li-	2.e	[li-	1cc	-ne,
4D	-be-	4d	-be-	.	.
2E	-ra	4c	-ra	1r	.
.	.	4B	.	.	.
[2F	nos,]	[2A	nos,	.	.
=30	=30	=30	=30	=30	=30
2F]	.	2A]	.	1cc	li-
*	*	*	*	*	*
2E	.	1G	Do-	.	.
1D	Do-	.	.	1dd	.
.	.	2F	-mi-	.	.
=31	=31	=31	=31	=31	=31
1C	.	1G	-ne,]	2.ee	.
.	.	.	.	4dd	-be-
2AA	-mi-	[1c	li-	4cc	-ra
.	.	.	.	4b	.
2A	.	.	.	[2a	nos,
=32	=32	=32	=32	=32	=32
2F	.	2c]	.	2a]	.
2G	.	2B	-be-	1g	Do-
*	*	*	*	*	*
1D	-ne,	1A	-ra	.	.
.	.	.	.	2f#i	-mi-
=33	=33	=33	=33	=33	=33
1E	.	4G	nos,	1g	-ne,
.	.	4A	.	.	.
.	.	4B	.	.	.
.	.	4c	.	.	.
1D	.	2d	Do-	1r	.
.	.	2d	-mi-	.	.
=34	=34	=34	=34	=34	=34
1r	.	0A	-ne,	1cc	li-
1D	li-	.	.	1dd	.
=35	=35	=35	=35	=35	=35
1C	-be-	2.c	li-	2.ee	.
.	.	4B	-be-	4dd	-be-
2F	-ra	2A	-ra	2cc	-ra
2G	nos,	2G	nos,	[2b	nos,
=36	=36	=36	=36	=36	=36
2G	Do-	1A	Do-	4b]	.
.	.	.	.	4a	.
2F	-mi-	.	.	1a	Do-
1E	-ne,	1B	-mi-	.	.
.	.	.	.	2g#i	-mi-
=37	=37	=37	=37	=37	=37
2.F	li-	1A	-ne,	[0al	-ne.
4E	-be-	.	.	.	.
2D	-ra	2.f	li-	.	.
2C	nos,	.	.	.	.
.	.	4e	-be-	.	.
=38	=38	=38	=38	=38	=38
2D	Do-	2d	-ra	0a_	.
2A	.	2c	.	.	.
2D	.	2d	nos,	.	.
2A	.	2e	.	.	.
=39	=39	=39	=39	=39	=39
2F	.	2.f	Do-	0a_	.
2.D	.	.	.	.	.
.	.	4e	.	.	.
.	.	2d	.	.	.
4E	.	.	.	.	.
4F	.	2d	-mi-	.	.
4G	.	.	.	.	.
=40	=40	=40	=40	=40	=40
1.A	.	[0cl	-ne.	0a_	.
2AA	-mi-	.	.	.	.
=41	=41	=41	=41	=41	=41
*	*	*	*	*	*
00AAl	-ne.	00c]	.	00a]	.
==	==	==	==	==	==
*-	*-	*-	*-	*-	*-
!!!system-decoration: [*]
!!!RDF**kern: i = editorial accidental
!!!RDF**kern: l = terminal long
!!!PTL: <i> New Senfl Edition: Motets for Four Voices (A-I) </i>
!!!PPR: Hollitzer Verlag
!!!PC#: Denkmäler der Tonkunst in Österreich 163.1
!!!PDT: 2021
!!!PED: Scott Lee Edwards, Stefan Gasch, and Sonja Tröster
!!!YEC: Copyright 2021 Denkmäler der Tonkunst in Österreich
!!!YEM: CC-BY-NC 4.0 (https://creativecommons.org/licenses/by-nc/4.0/legalcode)
!!!EED: Benjamin Ory
!!!EEV: 2023/10/11
!!!verovio: header true
!!!header-left: @{PTL}\n@{PED}, eds.\n@{PC#} (@{PDT})&nbsp;\n
!!!header-right:
!!!header-center:
